icon/ir/db.svg

<svg width="24" height="24" stroke-width="1.5" fill="none" xmlns="http://www.w3.org/2000/svg"><path d="M5 12v6s0 3 7 3 7-3 7-3v-6" stroke="currentColor"/><path d="M5 6v6s0 3 7 3 7-3 7-3V6" stroke="currentColor"/><path d="M12 3c7 0 7 3 7 3s0 3-7 3-7-3-7-3 0-3 7-3Z" stroke="currentColor"/></svg>

<svg stroke-width="1.5" viewBox="0 0 24 24" fill="none" xmlns="http://www.w3.org/2000/svg" height="1em" width="1em">
  <path d="M5 12V18C5 18 5 21 12 21C19 21 19 18 19 18V12" stroke="currentColor" stroke-width="1.5"/>
  <path d="M5 6V12C5 12 5 15 12 15C19 15 19 12 19 12V6" stroke="currentColor" stroke-width="1.5"/>
  <path d="M12 3C19 3 19 6 19 6C19 6 19 9 12 9C5 9 5 6 5 6C5 6 5 3 12 3Z" stroke="currentColor" stroke-width="1.5"/>
</svg>
